X: 1383
T: Jerry Hayes
M:C|
L:1/8
N:"collected by F. O'Neill"
B:O'Neill's 1383
Z:"Transcribed by Bob Safranek, rjs@gsp.org"
K:D
A2   | d2 (fe) ceAc | dAfd egce | d2 (fd) ceAg | fdec d2 :|
(AG) | FDAF    dABG | FDAF EcAG | FDAF    dABG | FDEC A2 (AG) |
       FDAF    dABG | FDAF EcAG | FDAF    dAAg | fdec d2 |]


